packages/foundations/assets/icons/functional/images/file/cloud_upload_28.svg

<svg width="28" height="28" viewBox="0 0 28 28" fill="none" xmlns="http://www.w3.org/2000/svg">
<g clip-path="url(#clip0_185_891)">
<path fill-rule="evenodd" clip-rule="evenodd" d="M14 12.6875C14.2188 12.6875 14.4445 12.7625 14.6222 12.9403L18.122 16.4405C18.2998 16.6182 18.375 16.8438 18.375 17.0627C18.375 17.4453 18.1016 17.9375 17.5 17.9375C17.2812 17.9375 17.0346 17.856 16.8721 17.6915L14.875 15.6679V23.1875C14.875 23.6796 14.4922 24.0625 14 24.0625C13.5078 24.0625 13.125 23.6796 13.125 23.1875V15.6679L11.1217 17.6843C10.9447 17.8626 10.7188 17.9375 10.5 17.9375C9.98042 17.9375 9.625 17.5273 9.625 17.0625C9.625 16.8438 9.70034 16.6183 9.8777 16.4403L13.3714 12.9335C13.5352 12.7696 13.7812 12.6875 14 12.6875ZM17.0625 3.9375C20.685 3.9375 23.625 6.87563 23.625 10.5L23.6182 11.0661C25.091 12.0293 26.0839 13.5893 26.2309 15.3003L26.2452 15.5243L26.25 15.75C26.25 18.7611 23.7386 21.2118 20.5547 21.4231L20.3415 21.4339L19.2496 21.434C18.8011 21.434 18.4314 21.0964 18.3809 20.6615L18.375 20.5594C18.375 20.0764 18.7665 19.6848 19.2496 19.6847L20.2961 19.6845C22.5871 19.6053 24.3941 17.949 24.4955 15.9291L24.5 15.75C24.5 14.3177 23.6393 13.01 22.2618 12.3141C21.9155 12.1391 21.7257 11.7569 21.7958 11.3752C21.8483 11.0888 21.875 10.7963 21.875 10.5C21.875 7.84213 19.7204 5.6875 17.0625 5.6875C15.2556 5.6875 13.6272 6.6915 12.7999 8.26253C12.5848 8.67087 12.0896 8.84199 11.6684 8.65354C11.168 8.4297 10.6243 8.3125 10.0625 8.3125C8.09988 8.3125 6.44432 9.75765 6.16644 11.6801C6.12603 11.9597 5.95312 12.2026 5.70216 12.3323C4.34473 13.0338 3.5 14.3309 3.5 15.75C3.5 17.8469 5.33616 19.5884 7.67346 19.6835L7.875 19.6876L8.75044 19.6871C9.19869 19.6869 9.56832 20.0241 9.61906 20.4588L9.625 20.5612C9.625 21.0443 9.23359 21.4361 8.75044 21.4366L7.875 21.4375C4.58006 21.4375 1.86766 19.0154 1.75373 15.9508L1.75 15.75C1.75 13.8795 2.72825 12.1769 4.30563 11.1266L4.49777 11.0038L4.55778 10.8165C5.16129 8.48759 7.19143 6.76649 9.62172 6.57941L9.8507 6.56639L10.0625 6.5625C10.4941 6.5625 10.9194 6.61076 11.3322 6.70495L11.6394 6.78416L11.7586 6.63354C12.9283 5.03018 15.0215 3.9375 17.0625 3.9375Z" fill="#1A1C1F"/>
</g>
<defs>
<clipPath id="clip0_185_891">
<rect width="28" height="28" fill="white"/>
</clipPath>
</defs>
</svg>

<svg xmlns="http://www.w3.org/2000/svg" width="28" height="28" fill="none"><g clip-path="url(#a)"><path fill="#1A1C1F" fill-rule="evenodd" d="M14 12.688c.219 0 .444.074.622.252l3.5 3.5a.87.87 0 0 1 .253.623c0 .382-.273.875-.875.875a.9.9 0 0 1-.628-.246l-1.997-2.024v7.52a.864.864 0 0 1-.875.875.864.864 0 0 1-.875-.875v-7.52l-2.003 2.016a.86.86 0 0 1-.622.253.864.864 0 0 1-.875-.875.87.87 0 0 1 .253-.622l3.493-3.507a.9.9 0 0 1 .629-.245m3.063-8.75a6.564 6.564 0 0 1 6.562 6.562l-.007.566c1.473.963 2.466 2.523 2.613 4.234l.014.224.005.226c0 3.011-2.511 5.462-5.695 5.673l-.213.01-1.092.001a.875.875 0 0 1-.87-.773l-.005-.102c0-.483.392-.874.875-.874h1.046c2.291-.08 4.098-1.736 4.2-3.756l.004-.179c0-1.432-.86-2.74-2.238-3.436a.875.875 0 0 1-.466-.939A4.812 4.812 0 0 0 12.8 8.262a.875.875 0 0 1-1.132.392 3.938 3.938 0 0 0-5.502 3.027.88.88 0 0 1-.464.651C4.345 13.034 3.5 14.331 3.5 15.75c0 2.097 1.836 3.838 4.173 3.933l.202.005h.875c.449-.001.818.336.87.77l.005.103a.875.875 0 0 1-.875.876h-.875c-3.295 0-6.007-2.422-6.121-5.486l-.004-.201c0-1.87.978-3.573 2.556-4.623l.192-.123.06-.187a5.69 5.69 0 0 1 5.064-4.238l.229-.013.211-.003q.65 0 1.27.142l.307.08.12-.151c1.17-1.604 3.262-2.697 5.304-2.697" clip-rule="evenodd"/></g><defs><clipPath id="a"><path fill="#fff" d="M0 0h28v28H0z"/></clipPath></defs></svg>
